svg/sch4u/benzene.svg

<svg xmlns="http://www.w3.org/2000/svg" viewBox="0 0 539.194 337.609" xml:space="preserve"><path fill="none" stroke="#000" stroke-width="2" stroke-miterlimit="10" d="M140.87 44.804v29m62 78v29"/><g fill="none" stroke="#000" stroke-width="2" stroke-miterlimit="10"><path d="M192.87 151.804v7"/><path stroke-dasharray="8,3" d="M192.87 161.804v10"/><path d="M192.87 172.804v8"/></g><g fill="none" stroke="#000" stroke-width="2" stroke-miterlimit="10"><path d="M88.87 151.804v7"/><path stroke-dasharray="8,3" d="M88.87 161.804v10"/><path d="M88.87 172.804v8"/></g><g fill="none" stroke="#000" stroke-width="2" stroke-miterlimit="10"><path d="m154.812 113.829 6.495 3.75"/><path stroke-dasharray="7.7778,3.1111" d="m164.002 119.135 8.083 4.666"/><path d="m173.432 124.579 6.495 3.75"/></g><g fill="none" stroke="#000" stroke-width="2" stroke-miterlimit="10"><path d="m102.812 203.896 6.495 3.75"/><path stroke-dasharray="7.7778,3.1111" d="m112.002 209.201 8.083 4.667"/><path d="m121.432 214.646 6.495 3.75"/></g><g fill="none" stroke="#000" stroke-width="2" stroke-miterlimit="10"><path d="m102.812 128.329 6.495-3.75"/><path stroke-dasharray="7.7778,3.1111" d="m112.002 123.023 8.083-4.666"/><path d="m121.432 117.579 6.495-3.75"/></g><g fill="none" stroke="#000" stroke-width="2" stroke-miterlimit="10"><path d="m154.812 218.396 6.495-3.75"/><path stroke-dasharray="7.7778,3.1111" d="m164.002 213.09 8.083-4.667"/><path d="m173.432 207.646 6.495-3.75"/></g><path fill="none" stroke="#000" stroke-width="2" stroke-miterlimit="10" d="M77.87 151.804v29m81.692-76.068 25.115 14.5m-87.615 93.753 25.115 14.5M97.062 119.236l25.115-14.5m37.385 122.753 25.115-14.5m-43.807 46.815v29M35.715 105.612l25.114 14.5m161.081 93 25.115 14.5m-211.31 0 25.114-14.5m161.081-93 25.115-14.5"/><text transform="translate(124.69 110.983)" font-family="'Concourse T3'" font-size="46">C</text><text transform="translate(125 38.64)" font-family="'Concourse T3'" font-size="46">H</text><text transform="translate(125 327.029)" font-family="'Concourse T3'" font-size="46">H</text><text transform="translate(249.5 110.982)" font-family="'Concourse T3'" font-size="46">H</text><text transform="translate(0 110.982)" font-family="'Concourse T3'" font-size="46">H</text><text transform="translate(0 255.226)" font-family="'Concourse T3'" font-size="46">H</text><text transform="translate(249.5 255.226)" font-family="'Concourse T3'" font-size="46">H</text><text transform="translate(62.73 146.685)" font-family="'Concourse T3'" font-size="46">C</text><text transform="translate(188.131 146.685)" font-family="'Concourse T3'" font-size="46">C</text><text transform="translate(188.131 218.296)" font-family="'Concourse T3'" font-size="46">C</text><text transform="translate(62.729 218.296)" font-family="'Concourse T3'" font-size="46">C</text><text transform="translate(124.69 255.227)" font-family="'Concourse T3'" font-size="46">C</text><g fill="none" stroke="#000" stroke-width="2" stroke-miterlimit="10"><path d="m451.708 268.202-86.162-49.559.162-99.398 86.323-49.838 86.162 49.558-.162 99.398z"/><circle cx="451.87" cy="168.804" r="64.885"/></g></svg>

<svg xmlns="http://www.w3.org/2000/svg" viewBox="0 0 539.194 337.609" xml:space="preserve"><path fill="none" stroke="#000" stroke-width="2" stroke-miterlimit="10" d="M140.87 44.804v29M202.87 151.804v29"/><g fill="none" stroke="#000" stroke-width="2" stroke-miterlimit="10"><path d="M192.87 151.804v7"/><path stroke-dasharray="8,3" d="M192.87 161.804v10"/><path d="M192.87 172.804v8"/></g><g fill="none" stroke="#000" stroke-width="2" stroke-miterlimit="10"><path d="M88.87 151.804v7"/><path stroke-dasharray="8,3" d="M88.87 161.804v10"/><path d="M88.87 172.804v8"/></g><g fill="none" stroke="#000" stroke-width="2" stroke-miterlimit="10"><path d="m154.812 113.829 6.495 3.75"/><path stroke-dasharray="7.7778,3.1111" d="m164.002 119.135 8.083 4.666"/><path d="m173.432 124.579 6.495 3.75"/></g><g fill="none" stroke="#000" stroke-width="2" stroke-miterlimit="10"><path d="m102.812 203.896 6.495 3.75"/><path stroke-dasharray="7.7778,3.1111" d="m112.002 209.201 8.083 4.667"/><path d="m121.432 214.646 6.495 3.75"/></g><g fill="none" stroke="#000" stroke-width="2" stroke-miterlimit="10"><path d="m102.812 128.329 6.495-3.75"/><path stroke-dasharray="7.7778,3.1111" d="m112.002 123.023 8.083-4.666"/><path d="m121.432 117.579 6.495-3.75"/></g><g fill="none" stroke="#000" stroke-width="2" stroke-miterlimit="10"><path d="m154.812 218.396 6.495-3.75"/><path stroke-dasharray="7.7778,3.1111" d="m164.002 213.09 8.083-4.667"/><path d="m173.432 207.646 6.495-3.75"/></g><path fill="none" stroke="#000" stroke-width="2" stroke-miterlimit="10" d="M77.87 151.804v29M159.562 104.736l25.115 14.5M97.062 212.989l25.115 14.5M97.062 119.236l25.115-14.5M159.562 227.489l25.115-14.5M140.87 259.804v29M35.715 105.612l25.114 14.5M221.91 213.112l25.115 14.5M35.715 227.612l25.114-14.5M221.91 120.112l25.115-14.5"/><text transform="translate(124.69 110.983)" font-family="'Concourse T3'" font-size="46">C</text><text transform="translate(125 38.64)" font-family="'Concourse T3'" font-size="46">H</text><text transform="translate(125 327.029)" font-family="'Concourse T3'" font-size="46">H</text><text transform="translate(249.5 110.982)" font-family="'Concourse T3'" font-size="46">H</text><text transform="translate(0 110.982)" font-family="'Concourse T3'" font-size="46">H</text><text transform="translate(0 255.226)" font-family="'Concourse T3'" font-size="46">H</text><text transform="translate(249.5 255.226)" font-family="'Concourse T3'" font-size="46">H</text><text transform="translate(62.73 146.685)" font-family="'Concourse T3'" font-size="46">C</text><text transform="translate(188.131 146.685)" font-family="'Concourse T3'" font-size="46">C</text><text transform="translate(188.131 218.296)" font-family="'Concourse T3'" font-size="46">C</text><text transform="translate(62.729 218.296)" font-family="'Concourse T3'" font-size="46">C</text><text transform="translate(124.69 255.227)" font-family="'Concourse T3'" font-size="46">C</text><g fill="none" stroke="#000" stroke-width="2" stroke-miterlimit="10"><path d="m451.708 268.202-86.162-49.559.162-99.398 86.323-49.838 86.162 49.558-.162 99.398z"/><circle cx="451.87" cy="168.804" r="64.885"/></g></svg>
